img/icons/file/plugin.svg

<svg fill="none" viewBox="0 0 16 16" xmlns="http://www.w3.org/2000/svg"><path d="m4 1c-0.745 0-1.39 0.407-1.74 1.01-1.27 0.12-2.26 1.19-2.26 2.49v6.5c0 1.66 1.34 3 3 3h10c1.66 0 3-1.34 3-3v-6.5c0-1.3-0.992-2.37-2.26-2.49-0.344-0.604-0.994-1.01-1.74-1.01h-1c-0.74 0-1.39 0.402-1.73 1h-2.54c-0.346-0.598-0.992-1-1.73-1h-1zm0 1c-0.552 0-1 0.448-1 1 0 0.552 0.448 1 1 1h1c0.552 0 1-0.448 1-1 0-0.552-0.448-1-1-1h-1zm5 1h-2v2.5c0 0.276-0.224 0.5-0.5 0.5s-0.5-0.224-0.5-0.5v-0.768c-0.294 0.17-0.636 0.268-1 0.268h-1c-0.364 0-0.706-0.0974-1-0.268v0.768c0 0.276-0.224 0.5-0.5 0.5s-0.5-0.224-0.5-0.5v-2.41c-0.583 0.206-1 0.762-1 1.41v2c0 0.828 0.672 1.5 1.5 1.5h11c0.828 0 1.5-0.672 1.5-1.5v-2c0-0.653-0.417-1.21-1-1.41v2.41c0 0.276-0.224 0.5-0.5 0.5s-0.5-0.224-0.5-0.5v-0.768c-0.294 0.17-0.636 0.268-1 0.268h-1c-0.364 0-0.706-0.0974-1-0.268v0.768c0 0.276-0.224 0.5-0.5 0.5s-0.5-0.224-0.5-0.5v-2.5zm1 0c0 0.552 0.448 1 1 1h1c0.552 0 1-0.448 1-1 0-0.552-0.448-1-1-1h-1c-0.552 0-1 0.448-1 1zm5 5.5c-0.418 0.314-0.937 0.5-1.5 0.5h-11c-0.563 0-1.08-0.186-1.5-0.5v2.5c0 1.1 0.895 2 2 2h10c1.1 0 2-0.895 2-2v-2.5z" clip-rule="evenodd" fill="#000" fill-rule="evenodd"/></svg>

<svg xmlns="http://www.w3.org/2000/svg" viewBox="0 0 16 16" fill="none">
  <path fill="#000" fill-rule="evenodd"
    d="M4 1a2 2 0 0 0-1.739 1.012A2.5 2.5 0 0 0 0 4.5V11a3 3 0 0 0 3 3h10a3 3 0 0 0 3-3V4.5a2.5 2.5 0 0 0-2.261-2.488A2 2 0 0 0 12 1h-1a2 2 0 0 0-1.732 1H6.732A2 2 0 0 0 5 1H4Zm0 1a1 1 0 1 0 0 2h1a1 1 0 0 0 0-2H4Zm5 1H7v2.5a.5.5 0 0 1-1 0v-.767A1.99 1.99 0 0 1 5 5H4a1.99 1.99 0 0 1-1-.267V5.5a.5.5 0 0 1-1 0V3.086A1.5 1.5 0 0 0 1 4.5v2A1.5 1.5 0 0 0 2.5 8h11A1.5 1.5 0 0 0 15 6.5v-2a1.5 1.5 0 0 0-1-1.414V5.5a.5.5 0 0 1-1 0v-.767A1.99 1.99 0 0 1 12 5h-1a1.99 1.99 0 0 1-1-.267V5.5a.5.5 0 0 1-1 0V3Zm1 0a1 1 0 0 0 1 1h1a1 1 0 1 0 0-2h-1a1 1 0 0 0-1 1Zm5 5.5c-.418.314-.937.5-1.5.5h-11A2.489 2.489 0 0 1 1 8.5V11a2 2 0 0 0 2 2h10a2 2 0 0 0 2-2V8.5Z"
    clip-rule="evenodd" />
</svg>
